Gruvbox-Plus-Dark/emotes/symbolic/face-sad-symbolic.svg

<svg width="16" height="16" version="1.1" xmlns="http://www.w3.org/2000/svg">
  <path d="m8 1c-3.87 0-7 3.13-7 7 0 3.86 3.13 7 7 7s7-3.14 7-7c0-3.87-3.13-7-7-7zm-3 4c0.55 0 1 0.45 1 1s-0.45 1-1 1-1-0.45-1-1 0.45-1 1-1zm6 0c0.55 0 1 0.45 1 1s-0.45 1-1 1-1-0.45-1-1 0.45-1 1-1zm-3 5a5 5 0 0 1 3.53 1.47l-0.7 0.7a4 4 0 0 0-2.83-1.17 4 4 0 0 0-2.83 1.17l-0.7-0.7a5 5 0 0 1 3.53-1.47z" fill="#ebdbb2"/>
</svg>

<svg xmlns="http://www.w3.org/2000/svg" width="16" height="16" version="1.1">
 <path style="fill:#ebdbb2" d="M 8,1 C 4.13,1 1,4.13 1,8 1,11.86 4.13,15 8,15 11.87,15 15,11.86 15,8 15,4.13 11.87,1 8,1 Z M 5,5 C 5.55,5 6,5.45 6,6 6,6.55 5.55,7 5,7 4.45,7 4,6.55 4,6 4,5.45 4.45,5 5,5 Z M 11,5 C 11.55,5 12,5.45 12,6 12,6.55 11.55,7 11,7 10.45,7 10,6.55 10,6 10,5.45 10.45,5 11,5 Z M 8,10 A 5,5 0 0 1 11.53,11.47 L 10.83,12.17 A 4,4 0 0 0 8,11 4,4 0 0 0 5.17,12.17 L 4.47,11.47 A 5,5 0 0 1 8,10 Z"/>
</svg>
